X: 3044
T: Bayou Fling, The
R: strathspey
M: 4/4
K: Gmajor
|:c/|B2 G>D A2 G>A|B2 d>e B<A A2|(3BcB G>D (3ABA G>B|d>eA>B A<GG3/2:|
A/|B>gd>g e2 d>g|B2 d>g B<A A2|B>gd>g (3ege B>e|d>eA>B A<GG>A|
B>gd>g e2- e>d|(3BcB d>e d<gb<g|(3efg d>g B>dg<e|a>eg<d (3BcB A3/2||

